X: 1
T: The Enchanted Valley
M: 2/4
L: 1/16
B: "O'Neill's 1"
N: "Very slow" "collected by J. O'Neill"
N:
Z: "Transcribed by Norbert Paap, norbertp@bdu.uva.nl"
Z:
K:Gm
G3-A (Bcd=e) | f4 (g2dB) | ({d}c3-B) G2-E2 | F4 (D2=E^F) |
G3-A (Bcd=e) | f4 d2-f2 | (g2a2 b2).g2 | {b}(a2g2 f2).d2 |
(d2{ed}c2) B2B2 | (A2G2 {AG}F2).D2 | (GABc) (d2{ed}c>A) | G2G2 G2z ||
G | B2c2 (dcAB) | G2G2 G3G | B2d2 (gfdc) | d2g2 (g3ga) |
(bagf) (gd)d>c | (B2AG) F-D.D2 | (GABc) d2d2 | (bgfd) cA.F2 |
G2A2 (B2{cB}AG) | A3-G F2-D2 | (GABc) (d2{ed}c>A) | G2G2 G2z2 ||


